src/assets/img/icons/wallet.svg

<svg width="80" height="80" viewBox="0 0 80 80" fill="none" xmlns="http://www.w3.org/2000/svg">
<path d="M74.5444 65.4547H61.8172C53.7971 65.4547 47.2721 58.9296 47.2721 50.9095C47.2721 42.8894 53.7971 36.3643 61.8172 36.3643H74.5444C75.5493 36.3643 76.3626 35.5511 76.3626 34.5461V29.0917C76.3626 25.279 73.4052 22.1783 69.6688 21.8776L59.2269 3.6393C58.2592 1.95251 56.6967 0.746909 54.827 0.246292C52.9662 -0.250916 51.0203 0.010216 49.3548 0.979575L13.5594 21.819H7.27267C3.26177 21.819 0 25.0806 0 29.0917V72.7273C0 76.7382 3.26159 80 7.27267 80H69.0899C73.1008 80 76.3626 76.7384 76.3626 72.7273V67.2729C76.3626 66.2679 75.5493 65.4547 74.5444 65.4547ZM61.4818 14.8993L65.4434 21.819H49.5964L61.4818 14.8993ZM20.7866 21.819L51.1853 4.12219C52.0074 3.64101 52.9679 3.51317 53.8859 3.75828C54.8146 4.0068 55.5888 4.60696 56.0699 5.44678L56.0737 5.45342L27.9645 21.819H20.7866Z" fill="#389AFF"/>
<path d="M74.5437 40.0013H61.8166C55.801 40.0013 50.9077 44.8947 50.9077 50.9103C50.9077 56.9258 55.801 61.8192 61.8166 61.8192H74.5437C77.5515 61.8192 79.9982 59.3725 79.9982 56.3647V45.4558C79.9982 42.448 77.5515 40.0013 74.5437 40.0013ZM61.8166 54.5465C59.8121 54.5465 58.1804 52.9148 58.1804 50.9103C58.1804 48.9057 59.8121 47.274 61.8166 47.274C63.8211 47.274 65.4529 48.9057 65.4529 50.9103C65.453 52.9148 63.8213 54.5465 61.8166 54.5465Z" fill="#389AFF"/>
</svg>

<?xml version="1.0" encoding="utf-8"?>
<!-- Generator: Adobe Illustrator 24.0.0, SVG Export Plug-In . SVG Version: 6.00 Build 0)  -->
<svg version="1.1" id="Layer_1" xmlns="http://www.w3.org/2000/svg" xmlns:xlink="http://www.w3.org/1999/xlink" x="0px" y="0px"
	 viewBox="0 0 80 80" style="enable-background:new 0 0 80 80;" xml:space="preserve">
<style type="text/css">
	.st0{fill:#043F7C;}
</style>
<path class="st0" d="M74.5,65.5H61.8c-8,0-14.5-6.5-14.5-14.5s6.5-14.5,14.5-14.5h12.7c1,0,1.8-0.8,1.8-1.8v-5.5
	c0-3.8-3-6.9-6.7-7.2L59.2,3.6c-1-1.7-2.5-2.9-4.4-3.4C53-0.3,51,0,49.4,1L13.6,21.8H7.3c-4,0-7.3,3.3-7.3,7.3v43.6
	c0,4,3.3,7.3,7.3,7.3h61.8c4,0,7.3-3.3,7.3-7.3v-5.5C76.4,66.3,75.5,65.5,74.5,65.5z M61.5,14.9l4,6.9H49.6L61.5,14.9z M20.8,21.8
	L51.2,4.1C52,3.6,53,3.5,53.9,3.8c0.9,0.2,1.7,0.8,2.2,1.7l0,0L28,21.8H20.8z"/>
<path class="st0" d="M74.5,40H61.8c-6,0-10.9,4.9-10.9,10.9c0,6,4.9,10.9,10.9,10.9h12.7c3,0,5.5-2.4,5.5-5.5V45.5
	C80,42.4,77.6,40,74.5,40z M61.8,54.5c-2,0-3.6-1.6-3.6-3.6c0-2,1.6-3.6,3.6-3.6c2,0,3.6,1.6,3.6,3.6C65.5,52.9,63.8,54.5,61.8,54.5
	z"/>
</svg>
